arcticons-dark/symbolic/apps/spotify-client-symbolic.svg

<?xml version="1.0" encoding="UTF-8" standalone="no"?>
<svg
   id="b"
   viewBox="0 0 48 48"
   version="1.1"
   sodipodi:docname="spotify-client.svg"
   xmlns:inkscape="http://www.inkscape.org/namespaces/inkscape"
   xmlns:sodipodi="http://sodipodi.sourceforge.net/DTD/sodipodi-0.dtd"
   xmlns="http://www.w3.org/2000/svg"
   xmlns:svg="http://www.w3.org/2000/svg">
  <sodipodi:namedview
     id="namedview1"
     pagecolor="#ffffff"
     bordercolor="#666666"
     borderopacity="1.0"
     inkscape:showpageshadow="2"
     inkscape:pageopacity="0.0"
     inkscape:pagecheckerboard="0"
     inkscape:deskcolor="#d1d1d1" />
  <defs
     id="defs1">
    <style
       id="style1">.c{fill:none;stroke:#fff;stroke-width:2px;stroke-linecap:round;stroke-linejoin:round;}</style>
  </defs>
  <path
     style="color:#000000;fill:#ffffff;stroke-linecap:round;stroke-linejoin:round;-inkscape-stroke:none"
     d="M 24,1.5 C 11.58545,1.5 1.5,11.58545 1.5,24 1.5,36.41455 11.58545,46.5 24,46.5 36.41455,46.5 46.5,36.41455 46.5,24 46.5,11.58545 36.41455,1.5 24,1.5 Z m 0,2 C 35.333671,3.5 44.5,12.666329 44.5,24 44.5,35.333671 35.333671,44.5 24,44.5 12.666329,44.5 3.5,35.333671 3.5,24 3.5,12.666329 12.666329,3.5 24,3.5 Z"
     id="circle1" />
  <path
     style="color:#000000;fill:#ffffff;stroke-linecap:round;stroke-linejoin:round;-inkscape-stroke:none"
     d="m 24.398437,15.087891 c -5.215088,-0.424113 -10.376133,0.0727 -14.33789,1.27539 a 1,1 0 0 0 -0.6660157,1.248047 1,1 0 0 0 1.2480467,0.666016 c 7.26547,-2.205615 19.79314,-1.734448 27.396484,2.779297 a 1,1 0 0 0 1.369141,-0.34961 1,1 0 0 0 -0.349609,-1.371094 C 34.882374,16.856714 29.613526,15.512004 24.398437,15.087891 Z M 17.625,22.148437 c -2.179017,0.170745 -4.319079,0.560254 -6.347656,1.175782 a 1,1 0 0 0 -0.667969,1.246093 1,1 0 0 0 1.248047,0.667969 c 7.501876,-2.276283 17.000583,-1.142426 23.33789,2.751953 a 1,1 0 0 0 1.375,-0.330078 1,1 0 0 0 -0.328125,-1.375 C 31.040278,23.088497 24.162051,21.636205 17.625,22.148437 Z m 0.564453,6.623047 c -1.957233,0.136199 -3.985201,0.44567 -6.078125,0.923828 a 1,1 0 0 0 -0.753906,1.197266 1,1 0 0 0 1.199219,0.751953 c 8.008086,-1.829562 14.724406,-1.032239 20.136718,2.275391 a 1,1 0 0 0 1.375,-0.332031 1,1 0 0 0 -0.332031,-1.373047 c -4.441557,-2.714372 -9.675176,-3.851955 -15.546875,-3.44336 z"
     id="path1" />
</svg>

<?xml version="1.0" encoding="UTF-8"?>
<svg id="b" version="1.1" viewBox="0 0 48 48" xmlns="http://www.w3.org/2000/svg">
 <defs id="defs4">
  <style id="style2">.c{fill:none;stroke:#fff;stroke-width:2px;stroke-linecap:round;stroke-linejoin:round;}</style>
 </defs>
 <path id="circle6" d="m24 1.5c-12.415 0-22.5 10.085-22.5 22.5s10.085 22.5 22.5 22.5 22.5-10.085 22.5-22.5-10.085-22.5-22.5-22.5zm0 2c11.334 0 20.5 9.1663 20.5 20.5s-9.1663 20.5-20.5 20.5-20.5-9.1663-20.5-20.5 9.1663-20.5 20.5-20.5z" color="#000000" fill="#fff" stroke-linecap="round" stroke-linejoin="round" style="-inkscape-stroke:none"/>
 <path id="path8" d="m24.398 15.088c-5.2151-0.42411-10.376 0.0727-14.338 1.2754a1 1 0 0 0-0.66602 1.248 1 1 0 0 0 1.248 0.66602c7.2655-2.2056 19.793-1.7344 27.396 2.7793a1 1 0 0 0 1.3691-0.34961 1 1 0 0 0-0.34961-1.3711c-4.1762-2.4792-9.4451-3.8239-14.66-4.248zm-6.7734 7.0605c-2.179 0.17074-4.3191 0.56025-6.3477 1.1758a1 1 0 0 0-0.66797 1.2461 1 1 0 0 0 1.248 0.66797c7.5019-2.2763 17.001-1.1424 23.338 2.752a1 1 0 0 0 1.375-0.33008 1 1 0 0 0-0.32812-1.375c-5.2019-3.1967-12.08-4.649-18.617-4.1367zm0.56445 6.623c-1.9572 0.1362-3.9852 0.44567-6.0781 0.92383a1 1 0 0 0-0.75391 1.1973 1 1 0 0 0 1.1992 0.75195c8.0081-1.8296 14.724-1.0322 20.137 2.2754a1 1 0 0 0 1.375-0.33203 1 1 0 0 0-0.33203-1.373c-4.4416-2.7144-9.6752-3.852-15.547-3.4434z" color="#000000" fill="#fff" stroke-linecap="round" stroke-linejoin="round" style="-inkscape-stroke:none"/>
</svg>
